svg/fluentui-system-icons/ic_fluent_window_database_24_filled.svg

<svg width="24" height="24" viewBox="0 0 24 24" fill="none" xmlns="http://www.w3.org/2000/svg">
<path d="M3 6.25C3 4.45507 4.45507 3 6.25 3H17.75C19.5449 3 21 4.45507 21 6.25V10.8263C20.5286 10.7146 20.0238 10.631 19.5 10.5765V8.5H4.5V17.75C4.5 18.7165 5.2835 19.5 6.25 19.5H11.5V21H6.25C4.45507 21 3 19.5449 3 17.75V6.25ZM14.664 12.4811C15.5512 12.1768 16.7323 12 18 12C19.2677 12 20.4488 12.1768 21.336 12.4811C21.7785 12.6328 22.1768 12.826 22.4737 13.0656C22.7728 13.307 23 13.6233 23 14C23 14.3767 22.7728 14.693 22.4737 14.9344C22.1768 15.174 21.7785 15.3672 21.336 15.5189C20.4488 15.8232 19.2677 16 18 16C16.7323 16 15.5512 15.8232 14.664 15.5189C14.2215 15.3672 13.8232 15.174 13.5263 14.9344C13.2272 14.693 13 14.3767 13 14C13 13.6233 13.2272 13.307 13.5263 13.0656C13.8232 12.826 14.2215 12.6328 14.664 12.4811ZM13 21.0002V16.395C13.381 16.6305 13.7913 16.8056 14.1775 16.938C15.2583 17.3086 16.6109 17.5002 18 17.5002C19.3891 17.5002 20.7417 17.3086 21.8225 16.938C22.2087 16.8056 22.619 16.6305 23 16.395V21.0002C23 21.4269 22.7381 21.7527 22.4536 21.976C22.1627 22.2042 21.773 22.3883 21.3362 22.5339C20.4575 22.8268 19.2768 23.0002 18 23.0002C16.7232 23.0002 15.5425 22.8268 14.6638 22.5339C14.227 22.3883 13.8373 22.2042 13.5464 21.976C13.2619 21.7527 13 21.4269 13 21.0002Z" fill="#212121"/>
</svg>

<svg xmlns="http://www.w3.org/2000/svg" width="24" height="24"><path d="M3 6.25A3.25 3.25 0 0 1 6.25 3h11.5A3.25 3.25 0 0 1 21 6.25v4.576a11.86 11.86 0 0 0-1.5-.25V8.5h-15v9.25c0 .966.784 1.75 1.75 1.75h5.25V21H6.25A3.25 3.25 0 0 1 3 17.75V6.25Zm11.664 6.231C15.551 12.177 16.732 12 18 12c1.268 0 2.449.177 3.336.481.443.152.84.345 1.138.585.299.241.526.557.526.934s-.227.693-.526.934c-.297.24-.695.433-1.138.585-.887.304-2.068.481-3.336.481-1.268 0-2.449-.177-3.336-.481-.442-.152-.84-.345-1.138-.585-.299-.241-.526-.557-.526-.934s.227-.693.526-.934c.297-.24.696-.433 1.138-.585ZM13 21.001v-4.606c.381.236.791.41 1.178.543 1.08.37 2.433.562 3.822.562 1.39 0 2.742-.191 3.823-.562A5.865 5.865 0 0 0 23 16.395V21c0 .427-.262.753-.546.976-.291.228-.681.412-1.118.558-.878.293-2.06.466-3.336.466-1.277 0-2.457-.173-3.336-.466-.437-.146-.827-.33-1.118-.558-.284-.223-.546-.55-.546-.976Z"/></svg>
